X: 307
T: Sally will You Marry Me? [1]
B: canberra pickers and fiddlers
B: tunes
M:C|
L:1/8
Q: 1/4=100
K:G
V:1 
ef|gdbd aged|Bd2B d2ef|gdbd aged|Be2e [e2e2]ef|
gdbd aged|Bd2B d2ef|g2fa gded|Be2B efed||
BGAE [G,2G2][D2A2]|[G,G]BAG EFGE|DB,DE G2 [D2A2]|+slide+[e2e2]-[ee]d efed|
BGAE [G,2G2][D2A2]|[G,G]BAG EFGE|DB,DG- GBAF|GBA2 G2[DA]([GB]|
B)GAE [G,2G2][D2A2]|[G,G]BAG EFGE|DB,DG [D2B2] [D2A2]|+slide+[e2e2]-[ee]d efed|
BGAE [G,2G2][D2A2]|[G,G]BAG EFGE|DB,D[G,G]- [G,2G2]AG|BGA2 G2]|] 
% abcbook-tune_id 63da5934ace8f12468a0e9a7
% abcbook-tune_composer_id 
% abcbook-link-0 https://www.youtube.com/watch?v=tpX3Yi7fZVE
% abcbook-link-start-at-0 27
% abcbook-link-end-at-0 82
% abcbook-boost 0
% abcbook-difficulty 0
% abcbook-tags canberra pickers and fiddlers,old time tunes,© free
% abcbook-tablature 
% abcbook-transpose 
% abcbook-tuning GDAD
% abcbook-lastupdated 1738708745624
% abcbook-src-url https://tunebook.net/scrape/tunes.abc
% abcbook-soundfonts 
% abcbook-repeats 1
%%gchordfont "itim-music,Itim" 20

